X: 641
T: Hell Among the Yearlings
B: jims roots
M:2/4
L:1/8
R: Reel
Q: 1/4=100
K:D
V:1 
Ac | "D"defd efde | fefg (3fgf ec | defd efed | "A"cdBc ABcA |
"D"ddde fedc | "G"BG2 G-G2 Bc | "A"c2 [e2a2]-[ea]efa | (3fgf ed cABc | AFEF "D"D2 AB||
"D"defd efge | fgaf gfec | defd efed | "A"cdBc ABcA | "D"ddde fedc |
"G"BGAB (G2G2) | "A"Aca2-aafa |gfed cABc |AFEF "D"d2(F2 ||
A)AAd BAFG |AdBA FEDB, | "A"A,A,A,B, CDEF | Acea fecA |
"D"{^G}A2Ad BAFG | AdBA FEDB,| "A"A,A,CD EFAB | AFEF "D"D2(F2||
A2)[A2A2]-[A2A2] A2 | ABAG FEDC | "A"A,^G,A,C =C^CE^D |E^GFG ABcA |
"D"{F}A2 Ad BAFG | ABdf edce | "A"^gaga fecA | dBAF "D"D2z2 ||
% abcbook-tune_id 6298c25dca9cbe1b3a89da4a


% abcbook-boost 0
% abcbook-tablature 
% abcbook-transpose 
% abcbook-lastupdated 1654178398702
% abcbook-soundfonts 
% abcbook-repeats 1


